dist/img/icons/nav/close.svg

<svg width="10" height="11" viewBox="0 0 10 11" fill="none" xmlns="http://www.w3.org/2000/svg">
<path d="M5.76703 5.21875L9.89397 1.09181C10.0353 0.950439 10.0353 0.721833 9.89397 0.580458L9.63829 0.324781C9.49692 0.183406 9.26831 0.183406 9.12694 0.324781L5 4.45172L0.873064 0.327789C0.731689 0.186414 0.503083 0.186414 0.361708 0.327789L0.106031 0.583466C-0.0353437 0.724841 -0.0353437 0.953447 0.106031 1.09482L4.23297 5.21875L0.109039 9.34569C-0.0323357 9.48706 -0.0323357 9.71567 0.109039 9.85704L0.364717 10.1127C0.506091 10.2541 0.734697 10.2541 0.876072 10.1127L5 5.98578L9.12694 10.1127C9.26831 10.2541 9.49692 10.2541 9.63829 10.1127L9.89397 9.85704C10.0353 9.71567 10.0353 9.48706 9.89397 9.34569L5.76703 5.21875Z" fill="#161C25"/>
</svg>

<svg width="10" height="11" fill="none" xmlns="http://www.w3.org/2000/svg"><path d="M5.767 5.219l4.127-4.127a.361.361 0 000-.512L9.638.325a.361.361 0 00-.511 0L5 4.452.873.328a.361.361 0 00-.511 0L.106.583a.361.361 0 000 .512l4.127 4.124L.109 9.346a.361.361 0 000 .511l.256.256c.141.141.37.141.511 0L5 5.986l4.127 4.127c.141.141.37.141.511 0l.256-.256a.361.361 0 000-.511L5.767 5.219z" fill="#161C25"/></svg>
